assets/crypto-service-logo.svg

<?xml version="1.0" encoding="UTF-8"?>
<svg width="1280px" height="640px" viewBox="0 0 1280 640" version="1.1" xmlns="http://www.w3.org/2000/svg" xmlns:xlink="http://www.w3.org/1999/xlink">
    <title>crypto-service-logo</title>
    <defs>
        <linearGradient x1="50%" y1="100%" x2="50%" y2="0%" id="linearGradient-1">
            <stop stop-color="#D676EB" offset="0%"></stop>
            <stop stop-color="#8227FF" offset="100%"></stop>
        </linearGradient>
        <linearGradient x1="50%" y1="100%" x2="50%" y2="0%" id="linearGradient-2">
            <stop stop-color="#D676EB" offset="0%"></stop>
            <stop stop-color="#8227FF" offset="100%"></stop>
        </linearGradient>
        <linearGradient x1="50%" y1="100%" x2="50%" y2="0%" id="linearGradient-3">
            <stop stop-color="#D676EB" offset="0%"></stop>
            <stop stop-color="#8227FF" offset="100%"></stop>
        </linearGradient>
        <linearGradient x1="50%" y1="100%" x2="50%" y2="0%" id="linearGradient-4">
            <stop stop-color="#D676EB" offset="0%"></stop>
            <stop stop-color="#8227FF" offset="100%"></stop>
        </linearGradient>
        <linearGradient x1="50%" y1="100%" x2="50%" y2="0%" id="linearGradient-5">
            <stop stop-color="#D676EB" offset="0%"></stop>
            <stop stop-color="#8227FF" offset="100%"></stop>
        </linearGradient>
        <linearGradient x1="50%" y1="100%" x2="50%" y2="0%" id="linearGradient-6">
            <stop stop-color="#D676EB" offset="0%"></stop>
            <stop stop-color="#8227FF" offset="100%"></stop>
        </linearGradient>
        <linearGradient x1="50%" y1="100%" x2="50%" y2="0%" id="linearGradient-7">
            <stop stop-color="#D676EB" offset="0%"></stop>
            <stop stop-color="#8227FF" offset="100%"></stop>
        </linearGradient>
        <path d="M471.569508,152.79133 C466.18969,147.414189 463.500049,140.925108 463.500049,133.326229 C463.500049,125.726814 466.18969,119.237733 471.569508,113.860592 C476.949326,108.447581 483.441084,105.741344 491.044246,105.741344 C495.706684,105.741344 500.064502,106.852748 504.117167,109.075022 L504.117167,96.2778109 C499.885157,94.8077164 495.527339,94.0732044 491.044246,94.0732044 C480.213407,94.0732044 470.959735,97.9085131 463.284835,105.580201 C455.609934,113.251354 451.772484,122.500208 451.772484,133.325693 C451.772484,144.151179 455.609934,153.400033 463.284835,161.071186 C470.96027,168.742874 480.213407,172.578718 491.044246,172.578718 C495.527339,172.578718 499.885157,171.825468 504.117167,170.32004 L504.117167,157.576365 C500.064502,159.763305 495.707219,160.856507 491.044246,160.856507 C483.441084,160.856507 476.949326,158.167936 471.569508,152.790795 L471.569508,152.79133 Z M524.883189,127.732803 L524.883189,106.547059 L541.614215,106.547059 C544.51907,106.547059 547.0117,107.586725 549.092103,109.665522 C551.136102,111.744855 552.158637,114.25408 552.158637,117.193734 C552.158637,120.097519 551.136102,122.570875 549.092103,124.614339 C547.0117,126.693136 544.51907,127.732803 541.614215,127.732803 L524.883189,127.732803 Z M550.328246,137.627299 C554.345041,135.906657 557.59092,133.218086 560.065347,129.561587 C562.612048,125.83335 563.88513,121.71109 563.88513,117.194269 C563.88513,111.028545 561.697655,105.776678 557.321635,101.439203 C552.982018,97.0658587 547.745676,94.878919 541.613144,94.878919 L513.206484,94.878919 L513.206484,171.825468 L524.880513,171.825468 L524.880513,139.402013 L538.06104,139.402013 L554.899673,171.825468 L568.080735,171.825468 L550.328246,137.627299 Z M614.510241,94.8799898 L598.209644,122.51841 L581.909047,94.8799898 L568.351627,94.8799898 L592.345326,135.639513 L592.345326,171.829216 L604.073426,171.829216 L604.073426,135.639513 L628.067126,94.8799898 L614.509706,94.8799898 L614.510241,94.8799898 Z M646.30465,127.732803 L663.035675,127.732803 C665.940531,127.732803 668.43316,126.693136 670.513564,124.614339 C672.557563,122.570875 673.579562,120.097519 673.579562,117.193734 C673.579562,114.25408 672.557563,111.744855 670.513564,109.665522 C668.43316,107.586725 665.940531,106.547059 663.035675,106.547059 L646.30465,106.547059 L646.30465,127.732803 Z M646.30465,171.826539 L634.630086,171.826539 L634.630086,94.8799898 L663.036746,94.8799898 C669.169814,94.8799898 674.40562,97.0669294 678.745772,101.440273 C683.121257,105.777748 685.309268,111.02908 685.309268,117.19534 C685.309268,123.325196 683.121257,128.558861 678.745772,132.896336 C674.406156,137.233811 669.169814,139.403084 663.036746,139.403084 L646.305721,139.403084 L646.305721,171.826539 L646.30465,171.826539 Z M692.032836,94.8799898 L692.032836,106.548665 L708.333433,106.548665 L708.333433,171.827074 L720.061533,171.827074 L720.061533,106.548665 L736.36213,106.548665 L736.36213,94.8799898 L692.032301,94.8799898 L692.032836,94.8799898 Z M754.115155,113.860056 C748.735872,119.237198 746.045695,125.725743 746.045695,133.325158 C746.045695,140.924573 748.735337,147.413118 754.115155,152.790259 C759.494973,158.167401 765.986731,160.855971 773.589893,160.855971 C781.193055,160.855971 787.685348,158.167401 793.064631,152.790259 C798.444449,147.413118 801.134626,140.924573 801.134626,133.325158 C801.134626,125.725743 798.444449,119.237198 793.064631,113.860056 C787.684813,108.482915 781.193055,105.794345 773.589893,105.794345 C765.986731,105.794345 759.494973,108.482915 754.115155,113.860056 Z M745.830481,161.071721 C738.155046,153.400568 734.317596,144.151714 734.317596,133.326229 C734.317596,122.500743 738.155046,113.251889 745.830481,105.580736 C753.505917,97.9095838 762.759054,94.0737398 773.589893,94.0737398 C784.420732,94.0737398 793.674404,97.9090484 801.349304,105.580736 C809.024204,113.251889 812.861655,122.500743 812.861655,133.326229 C812.861655,144.151714 809.024204,153.400568 801.349304,161.071721 C793.673869,168.743409 784.420732,172.579253 773.589893,172.579253 C762.759054,172.579253 753.505381,168.743409 745.830481,161.071721 Z M869.726904,172.525182 C864.633503,172.310503 859.935732,170.948015 855.631449,168.43879 C850.754333,165.606743 847.436716,161.807304 845.679134,157.0394 L856.653984,153.006544 C857.55071,155.372294 859.397697,157.290483 862.194945,158.760043 C864.669908,160.014388 867.359549,160.713566 870.26494,160.857042 C874.748032,161.036387 878.459673,159.94265 881.400933,157.5769 C883.875896,155.569306 885.184847,153.275294 885.328323,150.694331 C885.543537,145.783487 880.3966,141.857703 869.888047,138.918584 C853.425772,134.294157 845.446253,126.461326 845.948419,115.420091 C846.270705,107.677201 849.588322,101.887833 855.900734,98.0519892 C860.706648,95.1123354 866.481026,93.8039191 873.223866,94.1267403 C881.400933,94.4854305 887.964429,97.3351441 892.913819,102.676416 L884.35986,110.634521 C881.562611,107.623129 877.67109,106.010094 872.685831,105.79488 C869.170667,105.651939 866.175871,106.100034 863.701444,107.139165 C859.827589,108.788605 857.801257,111.727723 857.622448,115.957591 C857.407233,120.797233 862.553635,124.686612 873.062188,127.626266 C882.530539,130.278968 889.238047,134.18655 893.182569,139.348477 C895.908614,142.933238 897.181697,146.89382 897.002352,151.231831 C896.7154,157.325817 893.95402,162.487744 888.717678,166.718148 C883.840027,170.625194 877.993911,172.579253 871.179332,172.579253 C870.677166,172.579253 870.193202,172.561051 869.726904,172.525182 Z M906.309025,94.8794544 L906.309025,171.826539 L945.581857,171.826539 L945.581857,160.157864 L917.982518,160.157864 L917.982518,139.079192 L939.286576,139.079192 L939.286576,127.411052 L917.982518,127.411052 L917.982518,106.547594 L945.581857,106.547594 L945.581857,94.8794544 L906.309025,94.8794544 L906.309025,94.8794544 Z M966.024524,127.732803 L966.024524,106.547059 L982.755549,106.547059 C985.66094,106.547059 988.153569,107.586725 990.233437,109.665522 C992.277972,111.744855 993.299971,114.25408 993.299971,117.193734 C993.299971,120.097519 992.277972,122.570875 990.233437,124.614339 C988.153569,126.693136 985.660405,127.732803 982.755549,127.732803 L966.024524,127.732803 Z M991.46958,137.627299 C995.486375,135.906657 998.732254,133.218086 1001.20722,129.561587 C1003.75338,125.83335 1005.027,121.71109 1005.027,117.194269 C1005.027,111.028545 1002.83899,105.776678 998.463504,101.439203 C994.123888,97.0658587 988.887546,94.878919 982.754478,94.878919 L954.347818,94.878919 L954.347818,171.825468 L966.021847,171.825468 L966.021847,139.402013 L979.20291,139.402013 L996.041542,171.825468 L1009.22207,171.825468 L991.46958,137.627299 Z M1015.51842,94.8799898 L1015.51842,171.826539 L1029.82856,171.826539 L1075.18038,94.8799898 L1061.6235,94.8799898 L1027.24813,153.220688 L1027.24813,94.8799898 L1015.51842,94.8799898 Z M1082.38899,171.826539 L1094.06302,171.826539 L1094.06302,94.9875968 L1082.38899,94.9875968 L1082.38899,171.826539 Z M1123.22185,152.79133 C1117.84204,147.414189 1115.15186,140.925108 1115.15186,133.326229 C1115.15186,125.726814 1117.84204,119.237733 1123.22185,113.860592 C1128.60114,108.447581 1135.09343,105.741344 1142.69606,105.741344 C1147.35903,105.741344 1151.71685,106.852748 1155.76898,109.075022 L1155.76898,96.2778109 C1151.53697,94.8077164 1147.17915,94.0732044 1142.69606,94.0732044 C1131.86522,94.0732044 1122.61208,97.9085131 1114.93718,105.580201 C1107.26175,113.251354 1103.4243,122.500208 1103.4243,133.325693 C1103.4243,144.151179 1107.26175,153.400033 1114.93718,161.071186 C1122.61208,168.742874 1131.86575,172.578718 1142.69606,172.578718 C1147.17969,172.578718 1151.53697,171.825468 1155.76898,170.32004 L1155.76898,157.576365 C1151.71685,159.763305 1147.35903,160.856507 1142.69606,160.856507 C1135.0929,160.856507 1128.60114,158.167936 1123.22185,152.790795 L1123.22185,152.79133 Z M1165.45308,94.8794544 L1165.45308,171.826539 L1204.72591,171.826539 L1204.72591,160.157864 L1177.12604,160.157864 L1177.12604,139.079192 L1198.43009,139.079192 L1198.43009,127.411052 L1177.12604,127.411052 L1177.12604,106.547594 L1204.72591,106.547594 L1204.72591,94.8794544 L1165.45308,94.8794544 L1165.45308,94.8794544 L1165.45308,94.8794544 Z" id="path-8"></path>
    </defs>
    <g id="Page-1" stroke="none" stroke-width="1" fill="none" fill-rule="evenodd">
        <g id="crypto-service-logo">
            <polygon id="Path" fill-rule="nonzero" points="0 0 1280 0 1280 640 0 640"></polygon>
            <g id="Logo" transform="translate(36.626070, 188.629282)">
                <path d="M28.3820335,88.8582768 L28.3820335,102.207978 C28.3820335,116.391767 39.6507957,127.655711 53.8420801,127.655711 L77.215299,127.655711 L77.215299,114.723054 L53.8420801,114.723054 C46.7464379,114.723054 41.320579,108.882828 41.320579,102.207978 L41.320579,88.4412325 C47.5810619,85.9378959 51.7552525,79.6806252 51.7552525,73.0057748 C51.7552525,63.8275878 44.2420306,55.9016044 34.6425164,55.9016044 C25.4600466,55.9016044 17.5297804,63.4105435 17.5297804,73.0057748 C17.5297804,80.5147138 21.703971,86.7725199 28.3820335,88.8582768" id="Fill-3" fill="url(#linearGradient-1)"></path>
                <path d="M53.8420801,206.918756 L77.215299,206.918756 L77.215299,193.986635 L53.8420801,193.986635 C39.6507957,193.986635 28.3820335,205.250044 28.3820335,219.434369 L28.3820335,229.863689 C22.1210153,232.36649 17.5297804,238.624296 17.5297804,245.716191 C17.5297804,254.893842 25.0430023,262.820361 34.6425164,262.820361 C43.8249863,262.820361 51.7552525,255.311422 51.7552525,245.716191 C51.7552525,238.624296 47.5810619,232.783534 41.320579,230.280733 L41.320579,219.851413 C40.9029993,212.759518 46.7464379,206.918756 53.8420801,206.918756" id="Fill-4" fill="url(#linearGradient-2)"></path>
                <path d="M17.5297804,178.133598 C24.6254226,178.133598 30.8859055,173.962084 33.3903128,167.704278 L77.215299,167.704278 L77.215299,154.772157 L32.9727331,154.772157 C30.4688612,148.514351 24.2078429,144.342837 17.1127361,144.342837 C7.9302662,144.342837 -1.42108547e-14,151.851776 -1.42108547e-14,161.447007 C0.417044311,170.624659 7.9302662,178.133598 17.5297804,178.133598" id="Fill-5" fill="url(#linearGradient-3)"></path>
                <path d="M348.094948,102.625022 L348.094948,89.2753211 C354.35543,86.7725199 358.946665,80.5147138 358.946665,73.4228191 C358.946665,64.2451674 351.433979,56.3186488 341.834465,56.3186488 C332.651995,56.3186488 324.721729,63.8275878 324.721729,73.4228191 C324.721729,80.5147138 328.895384,86.3554756 335.156402,88.8582768 L335.156402,102.625022 C335.156402,109.716917 329.312963,115.140099 322.634901,115.140099 L299.261682,115.140099 L299.261682,128.072755 L322.634901,128.072755 C336.82565,128.072755 348.094948,116.391767 348.094948,102.625022" id="Fill-6" fill="url(#linearGradient-4)"></path>
                <path d="M335.573446,219.851413 L335.573446,230.280733 C329.312963,232.783534 325.139308,239.04134 325.139308,245.716191 C325.139308,254.893842 332.651995,262.820361 342.251509,262.820361 C351.433979,262.820361 359.364245,255.311422 359.364245,245.716191 C359.364245,238.624296 354.77301,232.36649 348.512527,229.863689 L348.512527,219.434369 C348.512527,205.250044 337.24323,193.986635 323.051945,193.986635 L299.678726,193.986635 L299.678726,206.918756 L323.051945,206.918756 C329.730008,206.918756 335.573446,212.759518 335.573446,219.851413" id="Fill-7" fill="url(#linearGradient-2)"></path>
                <path d="M358.946665,144.342837 C351.851558,144.342837 345.59054,148.514351 343.086133,154.772157 L299.678726,154.772157 L299.678726,167.704278 L343.503713,167.704278 C346.00812,173.962084 352.268603,178.133598 359.364245,178.133598 C368.546715,178.133598 376.476981,170.624659 376.476981,161.029428 C376.059401,151.851776 368.546715,144.342837 358.946665,144.342837" id="Fill-8" fill="url(#linearGradient-5)"></path>
                <path d="M108.518784,239.875964 L267.958197,239.875964 C277.557711,239.875964 285.070398,232.36649 285.070398,222.771794 L285.070398,112.220253 C285.070398,102.625022 277.557711,95.1160829 267.958197,95.1160829 L252.514709,95.1160829 L252.514709,64.2451674 C252.514709,28.7851585 223.715631,5.68434189e-14 188.238491,5.68434189e-14 C152.760815,5.68434189e-14 123.961737,28.7851585 123.961737,64.2451674 L123.961737,95.1160829 L108.518784,95.1160829 C98.91927,95.1160829 91.4060481,102.625022 91.4060481,112.220253 L91.4060481,222.771794 C91.4060481,232.36649 98.91927,239.875964 108.518784,239.875964 Z M205.350691,200.661486 C206.185851,203.164287 204.099023,206.084668 201.177036,206.084668 L175.716989,206.084668 C172.795538,206.084668 171.125754,203.581331 171.543334,200.661486 L177.803817,176.047841 C173.630162,172.710416 171.125754,167.704278 171.125754,162.281096 C171.125754,152.685865 179.056021,144.759881 188.655535,144.759881 C198.255584,144.759881 206.185851,152.685865 206.185851,162.281096 C206.185851,168.121322 203.681443,173.12746 199.507788,176.047841 L205.350691,200.661486 Z M148.58716,64.2451674 C148.58716,42.1348593 166.53452,24.6131093 188.238491,24.6131093 C210.359506,24.6131093 227.889286,42.5519036 227.889286,64.2451674 L227.889286,95.1160829 L148.58716,95.1160829 L148.58716,64.2451674 L148.58716,64.2451674 Z" id="Fill-9" fill="url(#linearGradient-6)"></path>
                <g id="Text">
                    <use fill="#111111" xlink:href="#path-8"></use>
                    <use fill="url(#linearGradient-7)" xlink:href="#path-8"></use>
                </g>
            </g>
        </g>
    </g>
</svg>

<svg width="1280" height="640" xmlns="http://www.w3.org/2000/svg" xmlns:xlink="http://www.w3.org/1999/xlink"><defs><linearGradient x1="50%" y1="100%" x2="50%" y2="0%" id="a"><stop stop-color="#D676EB" offset="0%"/><stop stop-color="#8227FF" offset="100%"/></linearGradient><linearGradient x1="50%" y1="100%" x2="50%" y2="0%" id="b"><stop stop-color="#D676EB" offset="0%"/><stop stop-color="#8227FF" offset="100%"/></linearGradient><linearGradient x1="50%" y1="100%" x2="50%" y2="0%" id="c"><stop stop-color="#D676EB" offset="0%"/><stop stop-color="#8227FF" offset="100%"/></linearGradient><linearGradient x1="50%" y1="100%" x2="50%" y2="0%" id="d"><stop stop-color="#D676EB" offset="0%"/><stop stop-color="#8227FF" offset="100%"/></linearGradient><linearGradient x1="50%" y1="100%" x2="50%" y2="0%" id="e"><stop stop-color="#D676EB" offset="0%"/><stop stop-color="#8227FF" offset="100%"/></linearGradient><linearGradient x1="50%" y1="100%" x2="50%" y2="0%" id="f"><stop stop-color="#D676EB" offset="0%"/><stop stop-color="#8227FF" offset="100%"/></linearGradient><linearGradient x1="50%" y1="100%" x2="50%" y2="0%" id="h"><stop stop-color="#D676EB" offset="0%"/><stop stop-color="#8227FF" offset="100%"/></linearGradient><path d="M471.57 152.791c-5.38-5.377-8.07-11.866-8.07-19.465 0-7.6 2.69-14.088 8.07-19.465 5.38-5.413 11.871-8.12 19.474-8.12 4.663 0 9.02 1.112 13.073 3.334V96.278a39.564 39.564 0 0 0-13.073-2.205c-10.83 0-20.084 3.836-27.76 11.507-7.674 7.671-11.512 16.92-11.512 27.746 0 10.825 3.838 20.074 11.513 27.745 7.675 7.672 16.928 11.508 27.76 11.508 4.482 0 8.84-.754 13.072-2.259v-12.744c-4.052 2.187-8.41 3.28-13.073 3.28-7.603 0-14.095-2.688-19.474-8.065zm53.313-25.058v-21.186h16.731c2.905 0 5.398 1.04 7.478 3.119 2.044 2.079 3.067 4.588 3.067 7.528 0 2.904-1.023 5.377-3.067 7.42-2.08 2.08-4.573 3.119-7.478 3.119h-16.73zm25.445 9.894c4.017-1.72 7.263-4.409 9.737-8.065 2.547-3.729 3.82-7.85 3.82-12.368 0-6.165-2.187-11.417-6.563-15.755-4.34-4.373-9.576-6.56-15.709-6.56h-28.407v76.946h11.675v-32.423h13.18l16.839 32.423h13.18l-17.752-34.198zM614.51 94.88l-16.3 27.638-16.301-27.638h-13.557l23.993 40.76v36.19h11.728v-36.19l23.994-40.76H614.51zm31.795 32.853h16.73c2.906 0 5.398-1.04 7.479-3.119 2.044-2.043 3.066-4.516 3.066-7.42 0-2.94-1.022-5.45-3.066-7.528-2.08-2.08-4.573-3.119-7.478-3.119h-16.731v21.186zm0 44.094H634.63V94.88h28.407c6.133 0 11.369 2.187 15.709 6.56 4.375 4.338 6.563 9.59 6.563 15.755 0 6.13-2.188 11.364-6.563 15.701-4.34 4.338-9.576 6.507-15.71 6.507h-16.73v32.424h-.001zm45.728-76.947v11.669h16.3v65.278h11.729V106.55h16.3V94.88h-44.33zm62.082 18.98c-5.38 5.377-8.07 11.866-8.07 19.465 0 7.6 2.69 14.088 8.07 19.465 5.38 5.377 11.872 8.066 19.475 8.066 7.603 0 14.095-2.689 19.475-8.066 5.38-5.377 8.07-11.865 8.07-19.465s-2.69-14.088-8.07-19.465c-5.38-5.377-11.872-8.066-19.475-8.066-7.603 0-14.095 2.689-19.475 8.066zm-8.285 47.212c-7.675-7.671-11.512-16.92-11.512-27.746 0-10.825 3.837-20.074 11.512-27.745 7.676-7.671 16.93-11.507 27.76-11.507 10.83 0 20.084 3.835 27.76 11.507 7.674 7.67 11.512 16.92 11.512 27.745 0 10.826-3.838 20.075-11.513 27.746-7.675 7.671-16.928 11.507-27.76 11.507-10.83 0-20.084-3.836-27.759-11.507zm123.897 11.453c-5.093-.214-9.791-1.577-14.096-4.086-4.877-2.832-8.194-6.632-9.952-11.4l10.975-4.032c.897 2.365 2.744 4.283 5.54 5.753 2.476 1.254 5.166 1.954 8.07 2.097 4.484.18 8.196-.914 11.137-3.28 2.475-2.008 3.784-4.302 3.927-6.883.216-4.91-4.931-8.836-15.44-11.775-16.462-4.625-24.442-12.458-23.94-23.499.323-7.743 3.64-13.532 9.953-17.368 4.806-2.94 10.58-4.248 17.323-3.925 8.177.358 14.74 3.208 19.69 8.55l-8.554 7.958c-2.797-3.012-6.689-4.625-11.674-4.84-3.515-.143-6.51.305-8.985 1.344-3.873 1.65-5.9 4.589-6.079 8.819-.215 4.84 4.932 8.729 15.44 11.668 9.469 2.653 16.176 6.56 20.12 11.722 2.727 3.585 4 7.546 3.82 11.884-.287 6.094-3.048 11.256-8.284 15.486-4.878 3.907-10.724 5.861-17.539 5.861-.502 0-.986-.018-1.452-.054zm36.582-77.646v76.948h39.273v-11.67h-27.6V139.08h21.305v-11.668h-21.304v-20.863h27.599V94.879h-39.273zm59.716 32.854v-21.186h16.73c2.906 0 5.399 1.04 7.478 3.119 2.045 2.079 3.067 4.588 3.067 7.528 0 2.904-1.022 5.377-3.067 7.42-2.08 2.08-4.573 3.119-7.477 3.119h-16.731zm25.445 9.894c4.016-1.72 7.262-4.409 9.737-8.065 2.546-3.729 3.82-7.85 3.82-12.368 0-6.165-2.188-11.417-6.563-15.755-4.34-4.373-9.576-6.56-15.71-6.56h-28.406v76.946h11.674v-32.423h13.18l16.84 32.423h13.18l-17.752-34.198zm24.048-42.747v76.947h14.31l45.352-76.947h-13.557l-34.375 58.34V94.88h-11.73zm66.871 76.947h11.674v-76.84h-11.674v76.84zm40.833-19.036c-5.38-5.377-8.07-11.866-8.07-19.465 0-7.6 2.69-14.088 8.07-19.465 5.38-5.413 11.871-8.12 19.474-8.12 4.663 0 9.02 1.112 13.073 3.334V96.278a39.564 39.564 0 0 0-13.073-2.205c-10.83 0-20.084 3.836-27.759 11.507-7.675 7.671-11.513 16.92-11.513 27.746 0 10.825 3.838 20.074 11.513 27.745 7.675 7.672 16.929 11.508 27.76 11.508 4.483 0 8.84-.754 13.072-2.259v-12.744c-4.052 2.187-8.41 3.28-13.073 3.28-7.603 0-14.095-2.688-19.474-8.065zm42.231-57.912v76.948h39.273v-11.67h-27.6V139.08h21.304v-11.668h-21.304v-20.863h27.6V94.879h-39.273z" id="g"/></defs><g fill="none" fill-rule="evenodd"><path d="M0 0L1280 0 1280 640 0 640z"/><g transform="translate(36.626 188.63)"><path d="M28.382 88.858v13.35c0 14.184 11.269 25.448 25.46 25.448h23.373v-12.933H53.842c-7.096 0-12.521-5.84-12.521-12.515V88.441c6.26-2.503 10.434-8.76 10.434-15.435 0-9.178-7.513-17.104-17.112-17.104-9.183 0-17.113 7.509-17.113 17.104 0 7.509 4.174 13.767 10.852 15.852" fill="url(#a)"/><path d="M53.842 206.919h23.373v-12.932H53.842c-14.191 0-25.46 11.263-25.46 25.447v10.43c-6.261 2.502-10.852 8.76-10.852 15.852 0 9.178 7.513 17.104 17.113 17.104 9.182 0 17.112-7.509 17.112-17.104 0-7.092-4.174-12.932-10.434-15.435v-10.43c-.418-7.091 5.425-12.932 12.521-12.932" fill="url(#b)"/><path d="M17.53 178.134c7.095 0 13.356-4.172 15.86-10.43h43.825v-12.932H32.973c-2.504-6.258-8.765-10.43-15.86-10.43C7.93 144.343 0 151.853 0 161.448a17.476 17.476 0 0 0 17.53 16.687" fill="url(#c)"/><path d="M348.095 102.625v-13.35c6.26-2.502 10.852-8.76 10.852-15.852 0-9.178-7.513-17.104-17.113-17.104-9.182 0-17.112 7.509-17.112 17.104 0 7.092 4.173 12.932 10.434 15.435v13.767c0 7.092-5.843 12.515-12.521 12.515h-23.373v12.933h23.373c14.19 0 25.46-11.681 25.46-25.448" fill="url(#d)"/><path d="M335.573 219.851v10.43c-6.26 2.503-10.434 8.76-10.434 15.435 0 9.178 7.513 17.104 17.113 17.104 9.182 0 17.112-7.509 17.112-17.104 0-7.092-4.591-13.35-10.851-15.852v-10.43c0-14.184-11.27-25.447-25.461-25.447h-23.373v12.932h23.373c6.678 0 12.521 5.84 12.521 12.932" fill="url(#b)"/><path d="M358.947 144.343c-7.095 0-13.356 4.171-15.86 10.43h-43.408v12.931h43.825c2.504 6.258 8.765 10.43 15.86 10.43 9.183 0 17.113-7.51 17.113-17.105a17.477 17.477 0 0 0-17.53-16.686" fill="url(#e)"/><path d="M108.519 239.876h159.44c9.599 0 17.111-7.51 17.111-17.104V112.22c0-9.595-7.512-17.104-17.112-17.104h-15.443v-30.87c0-35.46-28.8-64.246-64.277-64.246-35.477 0-64.276 28.785-64.276 64.245v30.871h-15.443c-9.6 0-17.113 7.509-17.113 17.104v110.552c0 9.594 7.513 17.104 17.113 17.104zm96.832-39.215c.835 2.503-1.252 5.424-4.174 5.424h-25.46c-2.921 0-4.591-2.504-4.174-5.424l6.26-24.613c-4.173-3.338-6.677-8.344-6.677-13.767 0-9.595 7.93-17.521 17.53-17.521 9.6 0 17.53 7.926 17.53 17.521 0 5.84-2.505 10.846-6.678 13.767l5.843 24.613zM148.587 64.245c0-22.11 17.948-39.632 39.651-39.632 22.122 0 39.651 17.939 39.651 39.632v30.871h-79.302v-30.87z" fill="url(#f)"/><use fill="#111" xlink:href="#g"/><use fill="url(#h)" xlink:href="#g"/></g></g></svg>
